Stone-flower/app/images/phone.svg

<svg width="30" height="30" viewBox="0 0 30 30" fill="none" xmlns="http://www.w3.org/2000/svg">
<path d="M25.9453 6.74414L22.8252 3.62695C22.6051 3.40589 22.3435 3.23049 22.0554 3.11083C21.7673 2.99117 21.4584 2.92961 21.1465 2.92969C20.5107 2.92969 19.9131 3.17871 19.4649 3.62695L16.1074 6.98438C15.8864 7.20447 15.711 7.46608 15.5913 7.75416C15.4716 8.04225 15.4101 8.35114 15.4102 8.66309C15.4102 9.29883 15.6592 9.89648 16.1074 10.3447L18.5625 12.7998C17.9878 14.0665 17.1888 15.2188 16.2041 16.2012C15.2218 17.1883 14.0696 17.9902 12.8027 18.5684L10.3477 16.1133C10.1276 15.8922 9.86596 15.7168 9.57787 15.5972C9.28979 15.4775 8.9809 15.4159 8.66895 15.416C8.03321 15.416 7.43555 15.665 6.98731 16.1133L3.62696 19.4678C3.40562 19.6883 3.23007 19.9504 3.11041 20.239C2.99074 20.5276 2.92932 20.837 2.92969 21.1494C2.92969 21.7852 3.17871 22.3828 3.62696 22.8311L6.74121 25.9453C7.45606 26.6631 8.44336 27.0703 9.45703 27.0703C9.6709 27.0703 9.87598 27.0527 10.0781 27.0176C14.0273 26.3672 17.9443 24.2666 21.1055 21.1084C24.2637 17.9531 26.3613 14.0391 27.0205 10.0781C27.2197 8.86816 26.8184 7.62305 25.9453 6.74414Z" fill="#FF9903"/>
</svg>

<svg width="30" height="30" fill="none" xmlns="http://www.w3.org/2000/svg"><path d="M25.945 6.744l-3.12-3.117a2.368 2.368 0 00-1.678-.697c-.636 0-1.234.249-1.682.697l-3.358 3.357a2.37 2.37 0 000 3.36l2.456 2.456a11.54 11.54 0 01-2.359 3.401 11.584 11.584 0 01-3.401 2.367l-2.455-2.455a2.367 2.367 0 00-1.68-.697c-.635 0-1.232.249-1.68.697l-3.361 3.355a2.37 2.37 0 00-.697 1.681c0 .636.249 1.234.697 1.682l3.114 3.114a3.85 3.85 0 002.716 1.125c.214 0 .419-.017.621-.052 3.95-.65 7.866-2.751 11.027-5.91 3.159-3.155 5.256-7.069 5.915-11.03a3.856 3.856 0 00-1.075-3.334z" fill="#FF9903"/></svg>
